X: 62
T: Eranthis
C: Ulli Alles
R: waltz
M: 3/4
K: Am
L: 1/8
AB |: "Am"c2 e2 c2  | "G"B2 d2 B2 | "F"A3 FAB | "F"c2 B2 AB |
"Dm"c2 e2 c2  | "Em"B2 d2 B2 | "F"A4 "G"G2 |1 "Am"A4 AB :|2 "Am"A4 B2 || 
|: "C"c2 g3 g | "Em"e6 | "F"e2 d2 d2 | "G"e2 d2 d2 |
"C"c2 g3 g | "Em"e6 |1 "F"c4 d2 | "G"d6 :|2 "F"c4 "G"B2 | "Am"A6 ||

